X: 40
T: the HELSTON FURRY
B: FIFTY OLD ENGLISH FOLK DANCE AIRS", Edgar H. Hunt ed., Schott & Co. Ltd. pub., London 1939
Z: 2004-2014 John Chambers <jc:trillian.mit.edu>
M: 2/2
L: 1/8
K: G
|: G2(G2 B2)(B2 |  d2)d2 d2(ef) | g2d2 (de)dc | B4 G4 :|\
|:.c2.e2 e2(dc) | (Bc)d2 d2(ef) | g2d2 (de)dc | B4 G4 :|

%%sep 1 1 500
%%sep 1 1 500
